htdocs/bitrix/js/ui/icons/service/images/ui-service-light-alice.svg

<svg xmlns="http://www.w3.org/2000/svg" width="42" height="42" viewBox="0 0 42 42"><path fill="#80868E" d="M21.9493124,31.0000002 C18.9318124,30.8740002 16.3535824,30.6903002 13.9241624,29.6621002 C12.0496744,28.8687002 11.2205644,27.7391002 11.5833566,25.3552002 C12.0939284,22.0006002 13.8032324,19.1611302 15.8052424,16.4730002 C16.9195524,14.9765802 18.1692524,13.5968202 19.7851524,12.5698052 C20.9800124,11.8104162 22.1287124,11.8076492 23.3253124,12.5760032 C25.0194124,13.6639002 26.2956124,15.1398402 27.4591124,16.7159502 C29.2042124,19.0803402 30.6456124,21.6038802 31.3089124,24.4708002 C31.4963124,25.2801002 31.5131124,26.1419002 31.4938124,26.9774002 C31.4692124,28.0482002 30.8130124,28.7749002 29.8947124,29.3018002 C28.6166124,30.0350002 27.2030124,30.3898002 25.7630124,30.6051002 C24.3640124,30.8142002 22.9457124,30.9008002 21.9493124,31.0000002 Z"/></svg>

<svg xmlns="http://www.w3.org/2000/svg" width="42" height="42" viewBox="0 0 42 42"><path fill="#80868E" d="M21.95 31c-3.018-.126-5.596-.31-8.026-1.338-1.874-.793-2.703-1.923-2.34-4.307.51-3.354 2.22-6.194 4.221-8.882 1.115-1.496 2.364-2.876 3.98-3.903 1.195-.76 2.344-.762 3.54.006 1.694 1.088 2.97 2.564 4.134 4.14 1.745 2.364 3.187 4.888 3.85 7.755.187.81.204 1.67.185 2.506-.025 1.071-.681 1.798-1.6 2.325-1.277.733-2.691 1.088-4.131 1.303-1.399.21-2.817.296-3.814.395z"/></svg>
